svg/path.svg

<svg width="24" height="24" viewBox="0 0 24 24" fill="none" xmlns="http://www.w3.org/2000/svg">
<path d="M19.79 7.27009L16.76 4.24009C15.61 3.09009 14.04 3.15009 13.27 4.38009L11.58 7.05009L16.98 12.4501L19.65 10.7601C20.8 10.0301 20.87 8.35009 19.79 7.27009Z" stroke="#292D32" stroke-width="1.5" stroke-linecap="round" stroke-linejoin="round"/>
<path d="M11.58 7.04996L7.65 6.80996C5.46 6.67996 4.69 7.34996 4.45 9.43996L3.47 17.76C3.26 19.51 4.53 20.77 6.27 20.56L14.59 19.58C16.68 19.33 17.44 18.57 17.22 16.38L16.99 12.45" stroke="#292D32" stroke-width="1.5" stroke-linecap="round" stroke-linejoin="round"/>
<path d="M4.61 19.4199L7.64 16.3799" stroke="#292D32" stroke-width="1.5" stroke-linecap="round" stroke-linejoin="round"/>
</svg>

<svg xmlns="http://www.w3.org/2000/svg" width="24" height="24" fill="none"><path stroke="#292D32" stroke-linecap="round" stroke-linejoin="round" stroke-width="1.5" d="m19.79 7.27-3.03-3.03c-1.15-1.15-2.72-1.09-3.49.14l-1.69 2.67 5.4 5.4 2.67-1.69c1.15-.73 1.22-2.41.14-3.49"/><path stroke="#292D32" stroke-linecap="round" stroke-linejoin="round" stroke-width="1.5" d="m11.58 7.05-3.93-.24c-2.19-.13-2.96.54-3.2 2.63l-.98 8.32c-.21 1.75 1.06 3.01 2.8 2.8l8.32-.98c2.09-.25 2.85-1.01 2.63-3.2l-.23-3.93M4.61 19.42l3.03-3.04"/></svg>
